X:1
T:In The Hall of the Mountain King
T:In The Hall of the Mountain King
T:For Quartet
T:Edvard Grieg Arr. D. Wattis
C:Edvard Grieg
%%score 1 2 3 4
L:1/8
Q:1/4=105
M:4/4
K:Ab
V:1 treble transpose=-2 nm="B♭ Trumpet" snm="B♭ Tpt."
V:2 treble transpose=-2 nm="B♭ Trumpet" snm="B♭ Tpt."
V:3 treble transpose=-7 nm="Horn in F" snm="F Hn."
V:4 bass nm="Tenor Trombone" snm="T. Tbn."
V:1
[K:Bb]!pp! D8 |"^A" z2 .D2 z2 .D2 | z2 .D2 z2 .D2 | z2 .D2 z2 .D2 | z2 .F2 z2 .F2 | %5
 .G,2 z2 .G,2 z2 | .G,2 z2 .G,2 z2 | .G,2 z2 .G,2 z2 | .B,2 z2 .B,2 z2 ||[K:D]!p! z2 .A2 z2 .F2 | %10
 z2 .F2 z2 .F2 | z2 .A2 z2 .F2 | z2 .F2 z2 .F2 |!mp! !>!DEFG !>!AF !tenuto!A2 | %14
 !>!_BG !tenuto!B2 !>!AF !tenuto!A2 | !>!DEFG !>!AF !tenuto!A2 | !>!_BG B2 !tenuto!A4 | %17
[K:Bb][Q:1/4=110]!p! z2 .D2 z2 .D2 | z2 .D2 z2 .D2 | z2 .D2 z2 .D2 | z2 .F2 z2 .F2 | %21
!mf! !>!G,A,B,C !>!DB, !tenuto!D2 | !>!^CA, !tenuto!C2 !>!=C^G, !tenuto!C2 | !>!G,A,B,C !>!DB,DG | %24
 !>!DB,DG !>!G4 |[Q:1/4=115]"^B" z8 | z8 | z8 | z8 | !>!GABc !>!dB !tenuto!d2 | %30
 !>!^cA !tenuto!c2 !>!=c^G !tenuto!c2 | !>!GABc !>!dBdg | !>!fdBd !tenuto!f4 |[K:D][Q:1/4=120] z8 | %34
 z8 | z8 | z8 | !>!defg !>!af !tenuto!a2 | !>!_bf !tenuto!b2 !>!af !tenuto!a2 | %39
 !>!defg !>!af !tenuto!a2 | !>!_bf b2 !tenuto!a4 ||[K:Bb][Q:1/4=130] z8 | z8 | z8 | z8 | %45
[Q:1/4=140] !>!GABc !>!dB !tenuto!d2 | !>!^cA !tenuto!c2 !>!=c^G !tenuto!c2 | %47
"_cresc." !>!GABc !>!dBdg | !>!fdBd !tenuto!f4 |[Q:1/4=150]"^C"!fff! !>!G,A,B,C !>!DB, !tenuto!D2 | %50
 !>!^CA, !tenuto!C2 !>!=C^G, !tenuto!C2 | !>!G,A,B,C !>!DB,DG | !>!FDB,D !tenuto!F4 | %53
 !>!GABc !>!dB !tenuto!d2 | !>!^cA !tenuto!c2 !>!=c^G !tenuto!c2 | !>!GABc !>!dBdg | %56
 !>!fdBd !tenuto!f4 |[K:D][Q:1/4=160] !>!DEFG !>!AF !tenuto!A2 | %58
 !>!_BG !tenuto!B2 !>!AF !tenuto!A2 | !>!DEFG !>!AF !tenuto!A2 | !>!_BG B2 !tenuto!A4 | %61
[Q:1/4=170] !>!DEFG !>!AF !tenuto!A2 | !>!_BF !tenuto!B2 !>!AF !tenuto!A2 | %63
 !>!DEFG !>!AF !tenuto!A2 | !>!_BF B2 !tenuto!A4 ||[K:Bb][Q:1/4=180] !>!G,A,B,C !>!DB, !tenuto!D2 | %66
 !>!^CA, !tenuto!C2 !>!=C^G, !tenuto!C2 | !>!G,A,B,C !>!DB,DG | !>!FDB,D !tenuto!F4 | %69
[Q:1/4=190] !>!GABc !>!dB !tenuto!d2 | !>!^cA !tenuto!c2 !>!=c^G !tenuto!c2 | !>!GABc !>!dBdg | %72
 !>!fdBd !tenuto!f2 z2 |[Q:1/4=200]"^D" z2 !>!^C2 z4 | z2 !>!D2 z4 | G,A,B,C DB,DG | ^FDFA G2 z2 | %77
 z2 !>!^C2 z4 | z2 !>!D2 z4 | G,A,B,C DB,DG | ^FDFA G2 z2 | z2 !>!^C2 z4 | z2 !>!^C2 z4 | %83
 z2 !>!^C2 !>!C2 !>!C2 | !>!^C2 !>!C2 !>!C2 !>!C2 | !fermata!z8 | z2 !>!D2 z4 |] %87
V:2
[K:Bb]!pp! D8 | z2 .D2 z2 .D2 | z2 .D2 z2 .D2 | z2 .D2 z2 .D2 | z2 .F2 z2 .F2 | %5
!p! !>!G,A,B,C !>!DB, !tenuto!D2 | !>!^CA, !tenuto!C2 !>!=C^G, !tenuto!C2 | !>!G,A,B,C !>!DB,DG | %8
 !>!FDB,D !tenuto!F4 ||[K:D]!p! z2 .A2 z2 .F2 | z2 .F2 z2 .F2 | z2 .A2 z2 .F2 | z2 .F2 z2 .F2 | %13
 .D2 z2 .D2 z2 | ._B,2 z2 .D2 z2 | .D2 z2 .D2 z2 | ._B,2 z2 .D2 z2 |[K:Bb] z2 .D2 z2 .D2 | %18
 z2 .D2 z2 .D2 | z2 .D2 z2 .D2 | z2 .F2 z2 .F2 |!mp! .G,2 z2 .G,2 z2 | .G,2 z2 .G,2 z2 | %23
 .G,2 .G2 .F2 .E2 | .D2 .C2 .B,2 .A,2 |!f! !>!G,A,B,C !>!DB, !tenuto!D2 | %26
 !>!^CA, !tenuto!C2 !>!=C^G, !tenuto!C2 | !>!G,A,B,C !>!DB,DG | !>!FDB,D !tenuto!F4 | %29
 !>!G,A,B,C !>!DB, !tenuto!D2 | !>!^CA, !tenuto!C2 !>!=C^G, !tenuto!C2 | !>!G,A,B,C !>!DB,DG | %32
 !>!FDB,D !tenuto!F4 |[K:D] !>!DEFG !>!AF !tenuto!A2 | !>!_BF !tenuto!B2 !>!AF !tenuto!A2 | %35
 !>!DEFG !>!AF !tenuto!A2 | !>!_BF B2 !tenuto!A4 | !>!DEFG !>!AF !tenuto!A2 | %38
 !>!_BF !tenuto!B2 !>!AF !tenuto!A2 | !>!DEFG !>!AF !tenuto!A2 | !>!_BF B2 !tenuto!A4 || %41
[K:Bb] !>!G,A,B,C !>!DB, !tenuto!D2 | !>!^CA, !tenuto!C2 !>!=C^G, !tenuto!C2 | %43
 !>!G,A,B,C !>!DB,DG | !>!FDB,D !tenuto!F4 | !>!G,A,B,C !>!DB, !tenuto!D2 | %46
 !>!^CA, !tenuto!C2 !>!=C^G, !tenuto!C2 |"_cresc." !>!G,A,B,C !>!DB,DG | !>!FDB,D !tenuto!F4 | %49
!fff! z2 (!>!D/4^C/4.D3/2) z2 (!>!D/4C/4.D3/2) | z2 (!>!D/4^C/4.D3/2) z2 (!>!D/4C/4.D3/2) | %51
 z2 (((!>!D/4^C/4.D3/2))) z2 (((!>!D/4C/4.D3/2))) | %52
 z2 (((!>!F/4=E/4.F3/2))) z2 (((!>!F/4E/4.F3/2))) | z2 (!>!D/4^C/4.D3/2) z2 (!>!D/4C/4.D3/2) | %54
 z2 (!>!D/4^C/4.D3/2) z2 (!>!D/4C/4.D3/2) | z2 (((!>!D/4^C/4.D3/2))) z2 (((!>!D/4C/4.D3/2))) | %56
 z2 (((!>!F/4=E/4.F3/2))) z2 (((!>!F/4E/4.F3/2))) | %57
[K:D] z2 (((!>!D/4C/4.D3/2))) z2 (((!>!D/4C/4.D3/2))) | %58
 z2 (((!>!D/4C/4.D3/2))) z2 (((!>!D/4C/4.D3/2))) | %59
 z2 (((!>!D/4C/4.D3/2))) z2 (((!>!D/4C/4.D3/2))) | %60
 z2 (((!>!D/4C/4.D3/2))) z2 (((!>!D/4C/4.D3/2))) | %61
 z2 (((!>!D/4C/4.D3/2))) z2 (((!>!D/4C/4.D3/2))) | %62
 z2 (((!>!D/4C/4.D3/2))) z2 (((!>!D/4C/4.D3/2))) | %63
 z2 (((!>!D/4C/4.D3/2))) z2 (((!>!D/4C/4.D3/2))) | %64
 z2 (((!>!D/4C/4.D3/2))) z2 (((!>!D/4C/4.D3/2))) || %65
[K:Bb] z2 (!>!D/4^C/4.D3/2) z2 (!>!D/4C/4.D3/2) | z2 (!>!D/4^C/4.D3/2) z2 (!>!D/4C/4.D3/2) | %67
 z2 (((!>!D/4^C/4.D3/2))) z2 (((!>!D/4C/4.D3/2))) | %68
 z2 (((!>!F/4=E/4.F3/2))) z2 (((!>!F/4E/4.F3/2))) | z2 (!>!D/4^C/4.D3/2) z2 (!>!D/4C/4.D3/2) | %70
 z2 (!>!D/4^C/4.D3/2) z2 (!>!D/4C/4.D3/2) | z2 (((!>!D/4^C/4.D3/2))) z2 (((!>!D/4C/4.D3/2))) | %72
 z2 ((!>!F/4=E/4.F3/2)) z4 | z2 !>!G2 z4 | z2 !>!G2 z4 |!mf!!mf! E4 D4 | D4 G,2 z2 | %77
!fff! z2 !>!G2 z4 | z2 !>!G2 z4 |!mf!!mf! E4 D4 | D4 G,2 z2 |!fff! z2 !>!G2 z4 | z2 !>!G2 z4 | %83
 z2 !>!G2 !>!G2 !>!G2 | !>!G2 !>!G2 !>!G2 !>!G2 | !fermata!z8 | z2 !>!G2 z4 |] %87
V:3
[K:Eb]!pp!!pp! G,8 | .C2 z2 .C2 z2 | .C2 z2 .C2 z2 | .C2 z2 .C2 z2 | .E2 z2 .E2 z2 | %5
!pp! z2 .G,2 z2 .G,2 | z2 .G,2 z2 .G,2 | z2 .G,2 z2 .G,2 | z2 .B,2 z2 .B,2 || %9
[K:G]!mp! !>!G,A,B,C !>!DB, !tenuto!D2 | !>!_EC !tenuto!E2 !>!DB, !tenuto!D2 | %11
 !>!G,A,B,C !>!DB, !tenuto!D2 | !>!_EC E2 !tenuto!D4 |!p! z2 .D2 z2 .B,2 | z2 .B,2 z2 .B,2 | %15
 z2 .D2 z2 .B,2 | z2 .B,2 z2 .B,2 |[K:Eb] .C2 z2 .C2 z2 | .C2 z2 .C2 z2 | .C2 z2 .C2 z2 | %20
 .E2 z2 .E2 z2 |!mp! z2 .G,2 z2 .G,2 | z2 .G,2 z2 .G,2 | .C2 .c2 .B2 .A2 | .G2 .F2 .E2 .D2 | %25
!mf! z2 .G,2 z2 .G,2 | z2 .G,2 z2 .G,2 | z2 .G,2 z2 .G,2 | z2 .B,2 z2 .B,2 | z2 .G,2 z2 .G,2 | %30
 z2 .G,2 z2 .G,2 | z2 .G,2 z2 .G,2 | z2 .B,2 z2 .B,2 |[K:G] z2 .D2 z2 .B,2 | z2 .B,2 z2 .B,2 | %35
 z2 .D2 z2 .B,2 | z2 .B,2 z2 .B,2 | z2 .D2 z2 .B,2 | z2 .B,2 z2 .B,2 | %39
 z2 !tenuto!..D2 z2 !tenuto!..B,2 | z2 .B,2 z2 .B,2 || %41
[K:Eb]!f! z2 (!>!G/4^F/4.G3/2) z2 (!>!G/4F/4.G3/2) | z2 (!>!G/4^F/4.G3/2) z2 (!>!G/4F/4.G3/2) | %43
 z2 (((!>!G/4^F/4.G3/2))) z2 (((!>!G/4F/4.G3/2))) | %44
 z2 (((!>!B/4=A/4.B3/2))) z2 (((!>!B/4A/4.B3/2))) | z2 ((!>!G/4^F/4.G3/2)) z2 ((!>!G/4F/4.G3/2)) | %46
 z2 ((!>!G/4^F/4.G3/2)) z2 ((!>!G/4F/4.G3/2)) | %47
!ppp!"_cresc." (G,/^F,/G,/F,/ G,/F,/G,/F,/ G,/F,/G,/F,/ G,/F,/G,/F,/ | %48
 G,/^F,/G,/F,/ G,/F,/G,/F,/ G,/F,/G,/F,/ G,/F,/G,/F,/) |!fff! !^!C2 z2 !^!C2 z2 | %50
 !^!C2 z2 !^!C2 z2 | !^!C2 z2 !^!C2 z2 | !^!B,2 z2 !^!B,2 z2 | !^!C2 z2 !^!C2 z2 | %54
 !^!C2 z2 !^!C2 z2 | !^!C2 z2 !^!C2 z2 | !^!B,2 z2 !^!B,2 z2 |[K:G] !>!G,A,B,C !>!DB, !tenuto!D2 | %58
 !>!_EC !tenuto!E2 !>!DB, !tenuto!D2 | !>!G,A,B,C !>!DB, !tenuto!D2 | !>!_EC E2 !tenuto!D4 | %61
 !>!G,A,B,C !>!DB, !tenuto!D2 | !>!_EB, !tenuto!E2 !>!DB, !tenuto!D2 | %63
 !>!G,A,B,C !>!DB, !tenuto!D2 | !>!_EB, E2 !tenuto!D4 ||[K:Eb] !^!C2 z2 !^!C2 z2 | %66
 !^!C2 z2 !^!C2 z2 | !^!C2 z2 !^!C2 z2 | !^!E2 z2 !^!E2 z2 | !>!G,A,B,=B, !>!CG, !tenuto!C2 | %70
 !>!B,F, !tenuto!B,2 !>!=A,F, !tenuto!A,2 | !>!G,A,B,=B, !>!CG,CE | !>!D=B,G,B, !tenuto!D2 z2 | %73
 z2 !>!C2 z4 | z2 !>!C2 z4 |!mf!!mf!!mf! F,4 G,4 | =B,4 C2 z2 |!fff! z2 !>!C2 z4 | z2 !>!C2 z4 | %79
!mf!!mf!!mf! F,4 G,4 | =B,4 C2 z2 |!fff! z2 !>!C2 z4 | z2 !>!C2 z4 | z2 !>!C2 !>!C2 !>!C2 | %84
 !>!C2 !>!C2 !>!C2 !>!C2 | !fermata!z8 | z2 !>!C2 z4 |] %87
V:4
!pp! C,8 |!p! !>!F,,G,,A,,B,, !>!C,A,, !tenuto!C,2 | %2
 !>!=B,,G,, !tenuto!B,,2 !>!_B,,^F,, !tenuto!B,,2 | !>!F,,G,,A,,B,, !>!C,A,,C,F, | %4
 !>!E,C,A,,C, !tenuto!E,4 | z2 .C,2 z2 .C,2 | z2 .C,2 z2 .C,2 | z2 .C,2 z2 .C,2 | %8
 z2 .E,2 z2 .E,2 ||[K:C]!p! .C,2 z2 .C,2 z2 | ._A,,2 z2 .C,2 z2 | .C,2 z2 .C,2 z2 | %12
 ._A,,2 z2 .C,2 z2 | z2 .G,2 z2 .E,2 | z2 .E,2 z2 .E,2 | z2 .G,2 z2 .E,2 | z2 .E,2 z2 .E,2 | %17
[K:Ab]!mp! !>!F,,G,,A,,B,, !>!C,A,, !tenuto!C,2 | %18
 !>!=B,,G,, !tenuto!B,,2 !>!_B,,^F,, !tenuto!B,,2 | !>!F,,G,,A,,B,, !>!C,A,,C,F, | %20
 !>!E,C,A,,C, !tenuto!E,4 |!mp! z2 .C,2 z2 .C,2 | z2 .C,2 z2 .C,2 | .F,,2 .F,2 .E,2 .D,2 | %24
 .C,2 .B,,2 .A,,2 .G,,2 |!mf! .F,,2 z2 .F,,2 z2 | .F,,2 z2 .F,,2 z2 | .F,,2 z2 .F,,2 z2 | %28
 .A,,2 z2 .A,,2 z2 | .F,,2 z2 .F,,2 z2 | .F,,2 z2 .F,,2 z2 | .F,,2 z2 .F,,2 z2 | %32
 .A,,2 z2 .A,,2 z2 |[K:C] .C,2 z2 .C,2 z2 | ._A,,2 z2 .C,2 z2 | .C,2 z2 .C,2 z2 | %36
 ._A,,2 z2 .C,2 z2 | .C,2 z2 .C,2 z2 | ._A,,2 z2 .C,2 z2 | .C,2 z2 .C,2 z2 | ._A,,2 z2 .C,2 z2 || %41
[K:Ab]!f! .F,,2 z2 .F,,2 z2 | .F,,2 z2 .F,,2 z2 | .F,,2 z2 .F,,2 z2 | .A,,2 z2 .A,,2 z2 | %45
 .F,,2 z2 .F,,2 z2 | .F,,2 z2 .F,,2 z2 |"_cresc." !^!F,,2 !^!F,2 !^!E,2 !^!D,2 | %48
 !^!C,2 !^!B,,2 !^!A,,2 !^!G,,2 |!fff! !^!F,,2 z2 !^!F,,2 z2 | !^!F,,2 z2 !^!F,,2 z2 | %51
 !^!F,,2 z2 !^!F,,2 z2 | !^!A,,2 z2 !^!A,,2 z2 | !^!F,,2 z2 !^!F,,2 z2 | !^!F,,2 z2 !^!F,,2 z2 | %55
 !^!F,,2 z2 !^!F,,2 z2 | !^!A,,2 z2 !^!A,,2 z2 |[K:C] !^!C,2 z2 !^!C,2 z2 | !^!_A,,2 z2 !^!C,2 z2 | %59
 !^!C,2 z2 !^!C,2 z2 | !^!C,2 z2 !^!C,2 z2 | !^!C,2 z2 !^!C,2 z2 | !^!A,,2 z2 !^!C,2 z2 | %63
 !^!C,2 z2 !^!C,2 z2 | !^!C,2 z2 !^!C,2 z2 ||[K:Ab] !>!F,,G,,A,,B,, !>!C,A,, !tenuto!C,2 | %66
 !>!=B,,G,, !tenuto!B,,2 !>!_B,,^F,, !tenuto!B,,2 | !>!F,,G,,A,,B,, !>!C,A,,C,F, | %68
 !>!E,C,A,,C, !tenuto!E,4 | !^!F,,2 z2 !^!F,,2 z2 | !^!F,,2 z2 !^!F,,2 z2 | !^!F,,2 z2 !^!F,,2 z2 | %72
 !^!A,,2 z2 !^!C,2 z2 | !>!F,,2 z2 z4 | !>!F,,2 z2 z4 |!mf!!mf!!mf!!mf! D,4 C,4 | C,,4 F,,2 z2 | %77
!fff! !>!F,,2 z2 z4 | !>!F,,2 z2 z4 |!mf!!mf!!mf!!mf! D,4 C,4 | C,,4 F,,2 z2 |!fff! !>!F,,2 z2 z4 | %82
 !>!F,,2 z2 z4 | !>!F,,2 !>!F,,2 !>!F,,2 !>!F,,2 | !>!F,,2 !>!F,,2 !>!F,,2 !>!F,,2 | !fermata!z8 | %86
 !>!F,,2 !>!F,2 z4 |] %87

